!!!!SEGMENT: pl-kk--kk-i-88--002-007_golabek-jakub--missa-2-agnus-dei.krn
!!!cenid: 17xx:2581
!!!COM: Gołąbek, Jakub
!!!COM-rismID: pe30008748
!!!CDT: 1739-1789/03/30
!!!CNT: Polish
!!!OPR: Missa 2
!!!OTL: Agnus Dei
!!!OMV: 007
!!!PDT:
!!!AGN: Sacred; Mass
!!!YEC: Copyright 2022 Narodowy Instytut Fryderyka Chopina (https://polishscores.org)
!!!YEM: License CC-BY-4.0 (https://creativecommons.org/licenses/by/4.0)
!!!SMS-siglum: PL-Kk
!!!SMS-shelfmark: Kk.I.88
!!!SMS-variant:
!!!SMS-altvar:
!!!SMS-shelfwork: 002-007 M
!!!NIFC-rismSourceID: 1001164072
!!!NIFC-rismChildID: 1001164081
!!!NIFC-islandoraID:
!!!URL-pdf-islandora: https://repozytorium.nifc.pl/islandora/object/pl-kk%3A3086/datastream/PDF/view
!!!URL-scan: https://polish.musicsources.pl/pl/lokalizacje/galeria/rekopisy/6148-missa/4 @EN{Scan on Polish Music Sources Website} @PL{Skany w portalu Dziedzictwo Muzyki Polskiej w otwartym dostępie}
!!!IIIF:
!!!ONB-nifc: UWAGA: C - f. 4r-5v; A - f. 12r-13v; T - f. 20r-21v; B - f. 28r-29v; B rip - f. 34r-35v. Proszę uwzględniać B rip. Części Mszy: 1. Kyrie, 2. Christe, 3. Et in terra, 4. Sanctus, 5. Osanna, 6. Benedictus, 7. Agnus Dei.
!!!AIN: 1 alto 1 bass 1 soprn 1 tenor
!!!key: d
**kern	**text	**dynam	**kern	**text	**dynam	**kern	**text	**dynam	**kern	**text	**dynam	**kern	**text	**dynam
*part5	*part5	*part5	*part4	*part4	*part4	*part3	*part3	*part3	*part2	*part2	*part2	*part1	*part1	*
*staff5	*staff5	*	*staff4	*staff4	*	*staff3	*staff3	*	*staff2	*staff2	*	*staff1	*staff1	*
*IGripn	*	*	*	*	*	*	*	*	*	*	*	*	*	*
*ICvox	*	*	*ICvox	*	*	*ICvox	*	*	*ICvox	*	*	*ICvox	*	*
*	*	*	*Ibass	*	*	*Itenor	*	*	*Ialto	*	*	*Isoprn	*	*
*I"Baſso E ripieno	*	*	*I"Baſso	*	*	*I"Tenore	*	*	*I"Alto	*	*	*I"Canto	*	*
*I'B rip	*	*	*I'B	*	*	*I'T	*	*	*I'A	*	*	*I'S	*	*
*clefF4	*	*	*clefF4	*	*	*clefC4	*	*	*clefC3	*	*	*clefC1	*	*
*k[b-]	*	*	*k[b-]	*	*	*k[b-]	*	*	*k[b-]	*	*	*k[b-]	*	*
*d:	*	*	*d:	*	*	*d:	*	*	*d:	*	*	*d:	*	*
*M2/2	*	*	*M2/2	*	*	*M2/2	*	*	*M2/2	*	*	*M2/2	*	*
*met(c|)	*	*	*met(c|)	*	*	*met(c|)	*	*	*met(c|)	*	*	*met(c|)	*	*
=1	=1	=1	=1	=1	=1	=1	=1	=1	=1	=1	=1	=1	=1	=1
*2\right	*	*	*2\right	*	*	*2\right	*	*	*2\right	*	*	*2\right	*	*
2.F\	A-	.	2.F\	A-	.	2.c\	A-	.	4f\	A-	.	4cc\	A-	.
.	.	.	.	.	.	.	.	.	4c\	.	.	4a\	.	.
.	.	.	.	.	.	.	.	.	4A/	.	.	4f\	.	.
4E\	-gnus	.	4E\	-gnus	.	4B-\	-gnus	.	4B-/	-gnus	.	4g\	-gnus	.
=2	=2	=2	=2	=2	=2	=2	=2	=2	=2	=2	=2	=2	=2	=2
4F\	De-	.	4F\	De-	.	4A/	De-	.	4c\	De-	.	4a\	De-	.
4E\	.	.	4E\	.	.	4G/	.	.	4d\	.	.	4b-\	.	.
4F\	-i	.	4F\	-i	.	4F/	-i	.	4c\	-i	.	4a\	-i	.
4F\	qui	.	4F\	qui	.	4F/	qui	.	4c\	qui	.	4a\	qui	.
=3	=3	=3	=3	=3	=3	=3	=3	=3	=3	=3	=3	=3	=3	=3
2BB-/	tol-	.	2BB-/	tol-	.	2d\	tol-	.	4d\	tol-	.	2b-\	tol-	.
.	.	.	.	.	.	.	.	.	4g\	.	.	.	.	.
2C/	.	.	2C/	.	.	2c\	.	.	4f\	.	.	4a\	.	.
.	.	.	.	.	.	.	.	.	4e\	.	.	4g\	.	.
=4	=4	=4	=4	=4	=4	=4	=4	=4	=4	=4	=4	=4	=4	=4
4F\	-lis	.	4F\	-lis	.	4c\	-lis	.	4f\	-lis	.	4a\	-lis	.
4F\	pec-	.	4F\	pec-	.	4c\	pec-	.	4a\	pec-	.	4cc\	pec-	.
4E\	-ca-	.	4E\	-ca-	.	4c\	-ca-	.	4g\	-ca-	.	4b-\	-ca-	.
4F\	-ta	.	4F\	-ta	.	4c\	-ta	.	4f\	-ta	.	4a\	-ta	.
=5	=5	=5	=5	=5	=5	=5	=5	=5	=5	=5	=5	=5	=5	=5
1C	mun-	.	1C	mun-	.	4B-\	mun-	.	4e\	mun-	.	4g\	mun-	.
.	.	.	.	.	.	4A\	.	.	4f\	.	.	4a\	.	.
!	!	!	!	!	!	!LO:LB:g=original	!	!	!	!	!	!	!	!
.	.	.	.	.	.	4G/	.	.	4g\	.	.	4b-\	.	.
.	.	.	.	.	.	4F/	.	.	4f\	.	.	4a\	.	.
!	!	!	!	!	!	!	!	!	!LO:LB:g=original	!	!	!	!	!
=6	=6	=6	=6	=6	=6	=6	=6	=6	=6	=6	=6	=6	=6	=6
2C/	-di	.	2C/	-di	.	2G/	-di	.	2e\	-di	.	2g/	-di	.
2r	.	.	2r	.	.	2r	.	.	2r	.	.	2r	.	.
!	!	!	!LO:LB:g=original	!	!	!	!	!	!	!	!	!LO:LB:g=original	!	!
=7	=7	=7	=7	=7	=7	=7	=7	=7	=7	=7	=7	=7	=7	=7
2C/	mi-	.	2C/	mi-	.	2e\	mi-	.	2g\	mi-	.	2b-\	mi-	.
2B-X\	-se-	.	2B-X\	-se-	.	2c\	-se-	.	2e\	-se-	.	2g\	-se-	.
=8	=8	=8	=8	=8	=8	=8	=8	=8	=8	=8	=8	=8	=8	=8
4A\	-re-	.	4A\	-re-	.	4c\	-re-	.	4f\	-re-	.	4a\	-re-	.
4G\	.	.	4G\	.	.	4B-\	.	.	4g\	.	.	4b-\	.	.
2F\	-re	.	2F\	-re	.	2A\	-re	.	2a\	-re	.	2cc\	-re	.
=9	=9	=9	=9	=9	=9	=9	=9	=9	=9	=9	=9	=9	=9	=9
2E\	mi-	.	2E\	mi-	.	2G/	mi-	.	2b-\	mi-	.	2cc\	mi-	.
2C/	-se-	.	2C/	-se-	.	2B-\	-se-	.	2g\	-se-	.	2cc\	-se-	.
=10	=10	=10	=10	=10	=10	=10	=10	=10	=10	=10	=10	=10	=10	=10
4F\	-re-	.	4F\	-re-	.	4A\	-re-	.	4a\	-re-	.	4cc\	-re-	.
4G\	.	.	4G\	.	.	4B-\	.	.	4g\	.	.	4b-\	.	.
4A\	-re	.	4A\	-re	.	2c\	-re	.	2f\	-re	.	2a\	-re	.
4F\	.	.	4F\	.	.	.	.	.	.	.	.	.	.	.
!LO:LB:g=original	!	!	!	!	!	!	!	!	!	!	!	!	!	!
=11	=11	=11	=11	=11	=11	=11	=11	=11	=11	=11	=11	=11	=11	=11
2C/	mi-	.	2C/	mi-	.	4B-\	mi-	.	4e\	mi-	.	4g\	mi-	.
.	.	.	.	.	.	4A\	.	.	4f\	.	.	4a\	.	.
2C/	-se-	.	2C/	-se-	.	4G\	.	.	4g\	.	.	4b-\	.	.
.	.	.	.	.	.	4B-\	-se-	.	4e\	-se-	.	4g\	-se-	.
!	!	!	!	!	!	!LO:LB:g=original	!	!	!	!	!	!	!	!
=12	=12	=12	=12	=12	=12	=12	=12	=12	=12	=12	=12	=12	=12	=12
4F\	-re-	.	4F\	-re-	.	4c\	-re-	.	4f\	-re-	.	4a\	-re-	.
4E\	.	.	4E\	.	.	4B-\	.	.	4g\	.	.	4b-\	.	.
4F\	.	.	4F\	.	.	4A\	.	.	4a\	.	.	4cc\	.	.
4BB-/	-re	.	4BB-/	-re	.	4G\	-re	.	4b-\	-re	.	4dd\	-re	.
!	!	!	!	!	!	!	!	!	!LO:LB:g=original	!	!	!	!	!
=13	=13	=13	=13	=13	=13	=13	=13	=13	=13	=13	=13	=13	=13	=13
1C	no-	.	1C	no-	.	2F/	no-	.	2a\	no-	.	2cc\	no-	.
.	.	.	.	.	.	2c\	.	.	2g\	.	.	2b-\	.	.
=14	=14	=14	=14	=14	=14	=14	=14	=14	=14	=14	=14	=14	=14	=14
2F\	-bis	.	2F\	-bis	.	2c\	-bis	.	2f\	-bis	.	2a\	-bis	.
2r	.	.	2r	.	.	2r	.	.	2r	.	.	2r	.	.
!	!	!	!LO:LB:g=original	!	!	!	!	!	!	!	!	!LO:LB:g=original	!	!
=15	=15	=15	=15	=15	=15	=15	=15	=15	=15	=15	=15	=15	=15	=15
!	!	!LO:DY:a:rj:t=p.	!	!	!LO:DY:a:rj	!	!	!LO:DY:a:rj:t=p.	!	!	!LO:DY:a:rj	!	!	!LO:DY:a:rj:t=p&colon;
2C/	mi-	p	2C/	mi-	p	2e\	mi-	p	2g\	mi-	p	2b-\	mi-	p
2B-X\	-se-	.	2B-X\	-se-	.	2c\	-se-	.	2e\	-se-	.	2g\	-se-	.
=16	=16	=16	=16	=16	=16	=16	=16	=16	=16	=16	=16	=16	=16	=16
4A\	-re-	.	4A\	-re-	.	4c\	-re-	.	4f\	-re-	.	4a\	-re-	.
4G\	.	.	4G\	.	.	4B-\	.	.	4g\	.	.	4b-\	.	.
2F\	-re	.	2F\	-re	.	2A\	-re	.	2a\	-re	.	2cc\	-re	.
=17	=17	=17	=17	=17	=17	=17	=17	=17	=17	=17	=17	=17	=17	=17
2E\	mi-	.	2E\	mi-	.	2G/	mi-	.	2b-\	mi-	.	2cc\	mi-	.
2C/	-se-	.	2C/	-se-	.	2B-\	-se-	.	2g\	-se-	.	2cc\	-se-	.
=18	=18	=18	=18	=18	=18	=18	=18	=18	=18	=18	=18	=18	=18	=18
4F\	-re-	.	4F\	-re-	.	4A\	-re-	.	4a\	-re-	.	4cc\	-re-	.
4G\	.	.	4G\	.	.	4B-\	.	.	4g\	.	.	4b-\	.	.
4A\	.	.	4A\	.	.	2c\	-re	.	2f\	-re	.	2a\	-re	.
4F\	-re	.	4F\	-re	.	.	.	.	.	.	.	.	.	.
!	!	!	!	!	!	!LO:LB:g=original	!	!	!	!	!	!	!	!
=19	=19	=19	=19	=19	=19	=19	=19	=19	=19	=19	=19	=19	=19	=19
!	!	!	!	!	!LO:DY:a:t=for	!	!	!LO:DY:a:t=for	!	!	!LO:DY:a:t=for	!	!	!LO:DY:a:rj:t=fo
2C/	mi-	.	2C/	mi-	f	4B-\	mi-	f	4e\	mi-	f	4g\	mi-	f
.	.	.	.	.	.	4A\	.	.	4f\	.	.	4a\	.	.
2C/	-se-	.	2C/	-se-	.	4G\	.	.	4g\	.	.	4b-\	.	.
.	.	.	.	.	.	4B-\	-se-	.	4e\	-se-	.	4g\	-se-	.
!	!	!	!	!	!	!	!	!	!LO:LB:g=original	!	!	!	!	!
=20	=20	=20	=20	=20	=20	=20	=20	=20	=20	=20	=20	=20	=20	=20
4F\	-re-	.	4F\	-re-	.	4c\	-re-	.	4f\	-re-	.	4a\	-re-	.
4E\	.	.	4E\	.	.	4B-\	.	.	4g\	.	.	4b-\	.	.
4F\	.	.	4F\	.	.	4A\	.	.	4a\	.	.	4cc\	.	.
4BB-/	-re	.	4BB-/	-re	.	4G\	-re	.	4b-\	-re	.	4dd\	-re	.
=21	=21	=21	=21	=21	=21	=21	=21	=21	=21	=21	=21	=21	=21	=21
1C	no-	.	1C	no-	.	2F/	no-	.	2a\	no-	.	1cc	no-	.
.	.	.	.	.	.	2c\	.	.	2g\	.	.	.	.	.
=22	=22	=22	=22	=22	=22	=22	=22	=22	=22	=22	=22	=22	=22	=22
1F	-bis	.	1F	-bis	.	2c\	-bis	.	2f\	-bis	.	2a\	-bis	.
.	.	.	.	.	.	2r	.	.	2r	.	.	2r	.	.
!LO:LB:g=original	!	!	!LO:LB:g=original	!	!	!LO:LB:g=original	!	!	!LO:LB:g=original	!	!	!LO:LB:g=original	!	!
=23||;;	=23||	=23||	=23||;;	=23||	=23||	=23||;;	=23||	=23||	=23||;;	=23||	=23||	=23||;;	=23||	=23||
*M3/2	*	*	*M3/2	*	*	*M3/2	*	*	*M3/2	*	*	*M3/2	*	*
2F\	A-	.	2F\	A-	.	1c	A-	.	2c\	A-	.	1a	A-	.
2A\	.	.	2A\	.	.	.	.	.	2f\	.	.	.	.	.
2c\	gnus	.	2c\	gnus	.	2B-\	-gnus	.	2e\	-gnus	.	2g\	-gnus	.
=24	=24	=24	=24	=24	=24	=24	=24	=24	=24	=24	=24	=24	=24	=24
2F\	De-	.	2F\	De-	.	2A\	De-	.	4f\	De-	.	4a\	De-	.
.	.	.	.	.	.	.	.	.	4a\	.	.	4cc\	.	.
2C/	-i	.	2C/	-i	.	2c\	-i	.	2g\	-i	.	2ee\	-i	.
2r	.	.	2r	.	.	2r	.	.	2r	.	.	2r	.	.
=25	=25	=25	=25	=25	=25	=25	=25	=25	=25	=25	=25	=25	=25	=25
1C	a-	.	1C	A-	.	2G/	a-	.	2e\	A-	.	2cc\	A-	.
.	.	.	.	.	.	2B-\	.	.	2g\	.	.	2ee\	.	.
2F\	-gnus	.	2F\	-gnus	.	2c\	-gnus	.	2a\	-gnus	.	2ff\	-gnus	.
=26	=26	=26	=26	=26	=26	=26	=26	=26	=26	=26	=26	=26	=26	=26
4c\	De-	.	4c\	De-	.	2c\	De-	.	4b-\	De-	.	4gg\	De-	.
4C/	.	.	4C/	.	.	.	.	.	4g\	.	.	4ee\	.	.
2F\	-i	.	2F\	-i	.	2c\	-i	.	2a\	-i	.	2ff\	-i	.
4r	.	.	4r	.	.	4r	.	.	4r	.	.	4r	.	.
4F\	qui	.	4F\	qui	.	4A\	qui	.	4a\	qui	.	4cc\	qui	.
=27	=27	=27	=27	=27	=27	=27	=27	=27	=27	=27	=27	=27	=27	=27
2F\	tol-	.	2F\	tol-	.	2A\	tol-	.	2a\	tol-	.	2cc\	tol-	.
2G\	-lis	.	2G\	-lis	.	2B-\	-lis	.	2g\	-lis	.	2b-\	-lis	.
4A\	pec-	.	4A\	pec-	.	2c\	pec-	.	2f\	pec-	.	2a\	pec-	.
4B-\	.	.	4B-\	.	.	.	.	.	.	.	.	.	.	.
!	!	!	!LO:LB:g=original	!	!	!LO:LB:g=original	!	!	!LO:LB:g=original	!	!	!LO:LB:g=original	!	!
=28	=28	=28	=28	=28	=28	=28	=28	=28	=28	=28	=28	=28	=28	=28
2c\	-ca-	.	2c\	-ca-	.	2c\	-ca-	.	2f\	-ca-	.	2a\	-ca-	.
2C/	-ta	.	2C/	-ta	.	2c\	-ta	.	2e\	-ta	.	2g\	-ta	.
2F\	pec-	.	2F\	pec-	.	2A\	pec-	.	2a\	pec-	.	2cc\	pec-	.
=29	=29	=29	=29	=29	=29	=29	=29	=29	=29	=29	=29	=29	=29	=29
2F\	-ca-	.	2F\	-ca-	.	2A\	-ca-	.	2a\	-ca-	.	2cc\	-ca-	.
2G\	.	.	2G\	.	.	2B-\	.	.	2g\	.	.	2b-\	.	.
2A\	-ta	.	2A\	-ta	.	2c\	-ta	.	2f\	-ta	.	2a\	-ta	.
=30	=30	=30	=30	=30	=30	=30	=30	=30	=30	=30	=30	=30	=30	=30
1.D	mun-	.	1.D	mun-	.	1.G	mun-	.	1.f	mun-	.	1.bn	mun-	.
=31	=31	=31	=31	=31	=31	=31	=31	=31	=31	=31	=31	=31	=31	=31
1.C	-di	.	1.C	-di	.	1.G	-di	.	1e	-di	.	1.cc	-di	.
.	.	.	.	.	.	.	.	.	2r	.	.	.	.	.
!LO:TX:b:rj:t=Dona nobis\nut Kyrie	!	!	!LO:TX:b:rj:t=Dona nobis ut Kyrie	!	!	!LO:TX:b:rj:t=Dona nobis ut Kyrie	!	!	!LO:TX:b:rj:t=Dona nobis ut Kyrie	!	!	!LO:TX:b:rj:t=Dona nobis ut Kyrie	!	!
==;;	==	==	==;;	==	==	==;;	==	==	==;;	==	==	==;;	==	==
*-	*-	*-	*-	*-	*-	*-	*-	*-	*-	*-	*-	*-	*-	*-
!!!system-decoration: [(s1,s2,s3,s4)]s5
!!!RDF**kern: > = above
!!!RDF**kern: < = below
!!!ENC: Berenika Jozajtis
!!!EED: Katarzyna Serwa
!!!END: 2024-02-28
!!!EEV: 2024-05-03
